images/checkout/maestro-c.svg

<svg width="37" height="28" viewBox="0 0 37 28" fill="none" xmlns="http://www.w3.org/2000/svg">
<g clip-path="url(#clip0_276_2992)">
<path d="M11.0909 27.7663V25.9202C11.1131 25.6069 10.9968 25.2994 10.7719 25.0762C10.5469 24.8529 10.235 24.7356 9.91567 24.754C9.49379 24.7269 9.0903 24.9273 8.86267 25.2771C8.65515 24.9377 8.27516 24.737 7.87236 24.754C7.52165 24.7366 7.18778 24.9028 6.99487 25.1909V24.8279H6.34302V27.7663H7.00114V26.1386C6.97161 25.9347 7.03692 25.7286 7.17905 25.5771C7.32117 25.4257 7.52508 25.3449 7.73447 25.3571C8.16695 25.3571 8.38632 25.634 8.38632 26.1325V27.7663H9.04444V26.1386C9.01726 25.9352 9.08339 25.7304 9.22498 25.5795C9.36657 25.4286 9.56905 25.3471 9.77777 25.3571C10.2228 25.3571 10.4359 25.634 10.4359 26.1325V27.7663H11.0909ZM14.7575 26.2986V24.8309H14.0994V25.1879C13.8752 24.9037 13.5251 24.7433 13.1593 24.7571C12.2939 24.7571 11.5923 25.4459 11.5923 26.2955C11.5923 27.1452 12.2939 27.834 13.1593 27.834C13.5251 27.8478 13.8752 27.6874 14.0994 27.4032V27.7602H14.7513L14.7575 26.2986ZM12.335 26.2986C12.364 25.8158 12.7808 25.4442 13.2731 25.4623C13.7655 25.4805 14.1527 25.8817 14.1447 26.3653C14.1368 26.849 13.7365 27.2377 13.2439 27.2402C12.9916 27.246 12.7486 27.1471 12.5744 26.9679C12.4002 26.7887 12.3111 26.5457 12.3288 26.2986H12.335ZM28.6846 24.7602C28.8992 24.7596 29.1119 24.7993 29.3114 24.8771C29.5018 24.9519 29.6753 25.0628 29.8222 25.2032C29.9672 25.3425 30.0823 25.5088 30.1607 25.6925C30.3244 26.087 30.3244 26.5287 30.1607 26.9232C30.0824 27.1069 29.9673 27.2733 29.8222 27.4125C29.6753 27.553 29.5018 27.6638 29.3114 27.7386C28.8981 27.8963 28.4397 27.8963 28.0265 27.7386C27.837 27.6638 27.6645 27.553 27.5188 27.4125C27.3752 27.2728 27.2612 27.1065 27.1835 26.9232C27.0201 26.5287 27.0201 26.087 27.1835 25.6925C27.2612 25.5092 27.3752 25.343 27.5188 25.2032C27.6645 25.0627 27.837 24.9519 28.0265 24.8771C28.2331 24.793 28.4547 24.7501 28.6783 24.7509L28.6846 24.7602ZM28.6846 25.3755C28.557 25.3738 28.4303 25.3968 28.3117 25.4432C28.2 25.4872 28.0987 25.5532 28.014 25.6371C27.9275 25.7254 27.8604 25.8301 27.8165 25.9448C27.7208 26.1905 27.7208 26.4622 27.8165 26.7079C27.8603 26.8226 27.9275 26.9273 28.014 27.0155C28.0986 27.0995 28.1999 27.1655 28.3117 27.2094C28.5504 27.3012 28.8157 27.3012 29.0544 27.2094C29.1715 27.1669 29.2782 27.1009 29.3678 27.0155C29.4544 26.9274 29.5216 26.8226 29.5652 26.7079C29.661 26.4622 29.661 26.1905 29.5652 25.9448C29.5216 25.83 29.4544 25.7253 29.3678 25.6371C29.2782 25.5518 29.1715 25.4857 29.0544 25.4432C28.9362 25.3901 28.8083 25.3608 28.6783 25.3571L28.6846 25.3755ZM18.2989 26.2986C18.2989 25.3755 17.716 24.7602 16.8792 24.7602C16.0138 24.7721 15.3221 25.4705 15.3342 26.3202C15.3463 27.1698 16.0577 27.849 16.9231 27.8371C17.3692 27.8521 17.8054 27.7053 18.1484 27.4248L17.835 26.9509C17.5876 27.1458 17.281 27.2541 16.9638 27.2586C16.5158 27.2965 16.1185 26.9773 16.0675 26.5386H18.2895C18.2989 26.4617 18.2989 26.3848 18.2989 26.2986ZM16.0707 26.0402C16.0958 25.6342 16.4432 25.3204 16.8573 25.3294C17.0543 25.3253 17.2449 25.3982 17.3871 25.5321C17.5293 25.6659 17.6116 25.8498 17.6157 26.0432L16.0707 26.0402ZM21.041 25.5786C20.7548 25.4168 20.4311 25.3299 20.1008 25.3263C19.7436 25.3263 19.5305 25.4555 19.5305 25.6709C19.5305 25.8863 19.7561 25.9232 20.0382 25.9602L20.3516 26.0032C21.0034 26.0955 21.3983 26.3663 21.3983 26.8832C21.3983 27.4002 20.8969 27.8432 20.035 27.8432C19.5731 27.8553 19.1195 27.7216 18.7407 27.4617L19.0541 26.9632C19.3417 27.1727 19.6928 27.2811 20.0507 27.2709C20.4957 27.2709 20.7339 27.1417 20.7339 26.914C20.7339 26.7479 20.5647 26.6555 20.2074 26.6063L19.894 26.5632C19.2234 26.4709 18.8598 26.1755 18.8598 25.6955C18.8598 25.1109 19.3487 24.754 20.1134 24.754C20.5414 24.7399 20.9645 24.8467 21.3325 25.0617L21.041 25.5786ZM24.1749 25.4125H23.1125V26.7386C23.1125 27.0463 23.2191 27.2309 23.545 27.2309C23.7484 27.2243 23.9468 27.1672 24.1216 27.0648L24.3097 27.6125C24.0653 27.7622 23.7829 27.8411 23.4949 27.8402C22.7239 27.8402 22.4544 27.434 22.4544 26.7509V25.4125H21.8464V24.8279H22.4544V23.9355H23.1125V24.8279H24.1749V25.4125ZM26.4282 24.754C26.5863 24.7546 26.7432 24.7817 26.892 24.834L26.6914 25.4494C26.5619 25.3987 26.4235 25.3736 26.284 25.3755C25.8578 25.3755 25.6573 25.6463 25.6573 26.1325V27.7786H25.0054V24.8402H25.651V25.1971C25.8139 24.9223 26.117 24.757 26.4407 24.7663L26.4282 24.754ZM30.9348 27.3386C30.9755 27.3381 31.0159 27.3454 31.0538 27.3602C31.0898 27.3746 31.1228 27.3955 31.151 27.4217C31.1785 27.4482 31.2008 27.4795 31.2168 27.514C31.2489 27.5866 31.2489 27.6691 31.2168 27.7417C31.2008 27.7762 31.1785 27.8075 31.151 27.834C31.1228 27.8603 31.0898 27.8811 31.0538 27.8955C31.0163 27.9118 30.9758 27.9202 30.9348 27.9202C30.8135 27.9193 30.7036 27.8498 30.6527 27.7417C30.621 27.669 30.621 27.5867 30.6527 27.514C30.6687 27.4795 30.691 27.4482 30.7185 27.4217C30.7467 27.3955 30.7797 27.3746 30.8157 27.3602C30.8486 27.3473 30.8836 27.34 30.9191 27.3386H30.9348ZM30.9348 27.8586C30.966 27.8588 30.997 27.8525 31.0256 27.8402C31.0526 27.8283 31.0771 27.8116 31.0977 27.7909C31.1517 27.7376 31.1753 27.6615 31.1609 27.5876C31.1465 27.5138 31.0959 27.4517 31.0256 27.4217C30.997 27.4094 30.966 27.4031 30.9348 27.4032C30.9035 27.4034 30.8726 27.4097 30.8439 27.4217C30.8157 27.433 30.7901 27.4498 30.7687 27.4709C30.6874 27.558 30.6874 27.6916 30.7687 27.7786C30.8125 27.8222 30.8724 27.8466 30.9348 27.8463V27.8586ZM30.9536 27.4925C30.9828 27.4911 31.0116 27.4998 31.035 27.5171C31.0545 27.5329 31.065 27.557 31.0632 27.5817C31.0641 27.6024 31.0562 27.6225 31.0413 27.6371C31.0231 27.6533 31 27.663 30.9755 27.6648L31.0664 27.7663H30.9943L30.9097 27.6648H30.8815V27.7663H30.8219V27.4832L30.9536 27.4925ZM30.8846 27.5448V27.6186H30.9536C30.9658 27.6222 30.9789 27.6222 30.9912 27.6186C30.9956 27.6099 30.9956 27.5996 30.9912 27.5909C30.9956 27.5822 30.9956 27.5719 30.9912 27.5632C30.9789 27.5596 30.9658 27.5596 30.9536 27.5632L30.8846 27.5448Z" fill="black"/>
<path d="M23.235 2.40918H13.3628V19.8274H23.235V2.40918Z" fill="#7673C0"/>
<path d="M13.9896 11.1206C13.9859 7.72109 15.575 4.50879 18.2987 2.40986C13.673 -1.15936 7.03033 -0.63947 3.03895 3.60416C-0.952436 7.84778 -0.952436 14.3904 3.03895 18.634C7.03033 22.8776 13.673 23.3975 18.2987 19.8283C15.5759 17.73 13.9869 14.5191 13.9896 11.1206Z" fill="#EB001B"/>
<path d="M36.5502 11.1199C36.5491 15.3598 34.0831 19.2271 30.199 21.0802C26.3149 22.9332 21.6941 22.4469 18.2983 19.8276C21.02 17.7275 22.6091 14.517 22.6091 11.1183C22.6091 7.71969 21.02 4.50916 18.2983 2.4091C21.6941 -0.212095 26.3161 -0.699554 30.2015 1.15375C34.0868 3.00706 36.5533 6.87576 36.5533 11.1168L36.5502 11.1199Z" fill="#00A1DF"/>
</g>
<defs>
<clipPath id="clip0_276_2992">
<rect width="36.6667" height="28" fill="white"/>
</clipPath>
</defs>
</svg>

<svg width="37" height="28" fill="none" xmlns="http://www.w3.org/2000/svg"><g clip-path="url(#clip0_276_2992)"><path d="M11.09 27.766V25.92a1.081 1.081 0 00-.318-.844 1.124 1.124 0 00-.856-.322 1.166 1.166 0 00-1.053.523 1.105 1.105 0 00-.99-.523.996.996 0 00-.878.437v-.363h-.652v2.938h.658V26.14a.678.678 0 01.178-.562.706.706 0 01.555-.22c.433 0 .652.277.652.776v1.633h.658V26.14a.684.684 0 01.181-.56.712.712 0 01.553-.222c.445 0 .658.277.658.776v1.633h.655zm3.668-1.467V24.83h-.659v.357a1.142 1.142 0 00-.94-.43c-.865 0-1.567.688-1.567 1.538 0 .85.702 1.538 1.567 1.538.366.014.716-.147.94-.43v.356h.652l.007-1.461zm-2.423 0a.9.9 0 01.938-.837c.492.018.88.42.872.903a.898.898 0 01-.901.875.905.905 0 01-.67-.272.87.87 0 01-.245-.67h.006zm16.35-1.539c.214 0 .427.04.626.117a1.507 1.507 0 01.85.816c.163.394.163.836 0 1.23-.079.184-.194.35-.339.49-.147.14-.32.25-.51.326a1.804 1.804 0 01-1.286 0 1.5 1.5 0 01-.843-.815 1.606 1.606 0 010-1.232 1.5 1.5 0 01.843-.815c.207-.084.429-.127.652-.126l.007.01zm0 .615a.988.988 0 00-.373.068.882.882 0 00-.298.194.899.899 0 00-.197.308 1.05 1.05 0 000 .763c.043.115.11.22.197.308.085.084.186.15.298.193.238.092.504.092.742 0a.898.898 0 00.314-.194.89.89 0 00.197-.307 1.049 1.049 0 000-.763.89.89 0 00-.197-.308.9.9 0 00-.314-.194.987.987 0 00-.376-.086l.007.018zm-10.386.924c0-.924-.583-1.539-1.42-1.539-.865.012-1.557.71-1.545 1.56.012.85.724 1.529 1.59 1.517a1.84 1.84 0 001.224-.412l-.313-.474a1.441 1.441 0 01-.871.308.827.827 0 01-.896-.72h2.221c.01-.077.01-.154.01-.24zm-2.228-.259a.765.765 0 01.786-.71.75.75 0 01.53.202.723.723 0 01.229.511l-1.545-.003zm4.97-.461a1.954 1.954 0 00-.94-.253c-.357 0-.57.13-.57.345 0 .215.225.252.507.29l.314.042c.651.093 1.046.363 1.046.88s-.501.96-1.363.96a2.187 2.187 0 01-1.294-.381l.313-.499c.288.21.639.318.997.308.445 0 .683-.13.683-.357 0-.166-.17-.259-.527-.308l-.313-.043c-.67-.092-1.034-.387-1.034-.867 0-.585.489-.942 1.253-.942a2.27 2.27 0 011.22.308l-.292.517zm3.134-.166h-1.063v1.326c0 .307.107.492.433.492a1.22 1.22 0 00.577-.166l.188.547a1.54 1.54 0 01-.815.228c-.771 0-1.04-.406-1.04-1.09v-1.337h-.609v-.585h.608v-.892h.659v.892h1.062v.585zm2.253-.659c.158 0 .315.028.464.08l-.2.615a1.077 1.077 0 00-.408-.074c-.426 0-.627.271-.627.758v1.646h-.652V24.84h.646v.357a.888.888 0 01.79-.43l-.013-.013zm4.507 2.585a.316.316 0 01.216.083.281.281 0 010 .412.313.313 0 01-.097.061.314.314 0 01-.401-.154.284.284 0 01.163-.38.318.318 0 01.103-.022h.016zm0 .52a.226.226 0 00.163-.068.225.225 0 00-.072-.37.228.228 0 00-.182 0 .228.228 0 00-.075.05.225.225 0 000 .308.234.234 0 00.166.067v.013zm.019-.367a.127.127 0 01.081.025c.02.016.03.04.028.065a.073.073 0 01-.022.055.111.111 0 01-.066.028l.091.101h-.072l-.084-.101h-.029v.101h-.06v-.283l.133.01zm-.07.053v.074h.07a.067.067 0 00.037 0 .03.03 0 000-.028.03.03 0 000-.028.067.067 0 00-.037 0l-.07-.018z" fill="#000"/><path d="M23.235 2.41h-9.872v17.417h9.872V2.41z" fill="#7673C0"/><path d="M13.99 11.12c-.004-3.399 1.585-6.611 4.309-8.71C13.673-1.16 7.03-.64 3.039 3.604a10.93 10.93 0 000 15.03c3.991 4.244 10.634 4.764 15.26 1.194-2.723-2.098-4.312-5.309-4.31-8.707z" fill="#EB001B"/><path d="M36.55 11.12c0 4.24-2.467 8.107-6.351 9.96-3.884 1.853-8.505 1.367-11.9-1.252 2.721-2.1 4.31-5.311 4.31-8.71 0-3.398-1.589-6.609-4.31-8.709C21.693-.212 26.315-.7 30.2 1.154c3.886 1.853 6.352 5.722 6.352 9.963l-.003.003z" fill="#00A1DF"/></g><defs><clipPath id="clip0_276_2992"><path fill="#fff" d="M0 0h36.667v28H0z"/></clipPath></defs></svg>
